X: 28674
T: Mussels In The Corner
R: polka
M: 2/4
K: Gmajor
|:GD GA|Bd eg/e/|dB AG/A/|BA A2|
GD GA|Bd eg/e/|dB AB/A/|G2 G2:|
|:gf ed|Bd eg/e/|dB AG/A/|BA A2|
gf ed|Bd eg/e/|dB AB/A/|G2 G2:|

